X: 1
T: Spaghetti Panic
C: Andy Cutting
R: Miscellaneous
M: 7/4
L: 1/8
K: G
r: 32
|:BeB fBgB | gfe f^dB=d | edc BAGA | AFD BAGA | BeB fBgB | gfe f^dB=d |
edc BAGA | AGF E4 :||: [M: 8/8] EFG B2 BcB | [M:7/8] ABc BFDd | edc BAGA | [M:8/8] BAG F2 AGF |
EFG B2 BcB | [M:7/8] ABc BFDd | edc BAGA |[1 AGF E4 :|[2 AGF G2 A2 |]
